X:1
T:Title
%%score [ ( 1 2 ) ( 3 4 ) ]
L:1/8
Q:1/4=120
M:2/2
K:F
V:1 treble nm="Midi_74" snm=" "
V:2 treble 
V:3 bass nm="Midi_74"
V:4 bass 
V:1
!p! c2 | A4 G4 |"^Quittez, pasteurs" F6 C2 | F2 G2 A2 B2 | %4
w: Quit-|tez, pas-|teurs, *||
 c4"^French traditional,\narr. C.H. Kitson (1874-1944)" c2 c2 | A4 G4 | F6 C2 | F2 G2 A2 B2 | %8
w: * * vo-|tre ha-|meau *||
 c6 F2 | E4 G4 | C6"^cresc." F2 | E2 F2 G2 E2 | (F2 G2) A2 G2 | A2 G2 A2 B2 | c6!f! f2 | c6 f2 | %16
w: * Chan-|gez vos|pleurs *||||||
 c6 f2 | e2 d2!>(! c2 B2 | A4 G4 | A6!>)!!f! f2 | c6 f2 | c6 f2 | e2 d2 c2!>(! B2 | A4 G4 | %24
w: ||||||||
 F6!>)! || z2 | z2!pp! F2 D2 E2 | F6 G2 | A2 B2 c2 d2 | c4 c2 z2 | z2 c2 B2 G2 | (B4 A2) G2 | %32
w: ||||||||
 A2 B2 c2 d2 | c6 z2 | z2 c2 =B2 d2 | c6 c2 | d2 c2 B2 d2 | (c2 B2) A2 B2 | c2 e2 f2 g2 | %39
w: ||Re- con- nais-|sez *||||
 (e2 d2 c2)!f! z2 | z2!f! f2 c4 | z2 f2 c4 | z2 f2"^dim." (e2 d2) | (c2 A2) B4 | A6!pp! z2 | %45
w: |Il est,|il est,|le fi *|dèle * *||
 z2!pp! f2 c4 | z2 f2 c4 | z2 f2 (e2 d2) | c4 B4 | A6 ||!f! c2 | A4 G4 | F6 C2 | F2 G2 A2 B2 | %54
w: Il est,|il est,|le fi *|dèle *||Rois|d'O ri-|ent! *||
 c4 c2 c2 | A4 G4 | F6 C2 | F2 G2 A2 B2 | c6!p! F2 | E4 G4 | C6 F2 | E2 F2 G2 E2 | %62
w: * * à|ce grand|Roi *||* L'a-|stre bril-|lant *||
 (F2 G2) A2"^cresc." G2 | A2 G2 A2 B2 | c6!f! f2 | c6 f2 | c6 f2 | e2 d2 c2 B2 | A4 G4 | %69
w: ||* Of-|frez, of-|frez, of-|frez l'or, la myrrhe|et l'en-|
 A6!ff! f2 | c6 f2 | c6 f2 | e2 d2 c2 B2 | A4 G4 | F6 |] %75
w: cens, of-|frez, of-|frez, of-|frez l'or, la myrrhe|et l'en-|cens.|
V:2
 z2 | z2!p! F2 D2 E2 | C6 C2 | A,2 E2 F2 F2 | (F2 E2) F2 z2 | z2 F2 D2 E2 | (F2 D2 C2) B,2 | %7
w: |Quit- tez pas-|teurs, vos|bre- bis, vos hou-|let * tes,|vo- tre ha-|meau * * et|
 A,2 C2 C2 F2 | (F2 E2 F2) z2 | z2 C2 D2 C2 | C6 C2 | D2 D2 D2 ^C2 | (D2 E2) F2 F2 | F2 E2 D2 F2 | %14
w: le soin du trou-|peau! * *|Chan- gez vos|pleurs en|u- ne joie par-|fai * te! Al-|lez tous a- do-|
 G6 F2 | (E2 F2 B2) A2 | (G2 F2 E2) F2 | F2 F2 A2 G2 | F4 E4 | F6 F2 | (E2 F2 B2) A2 | %21
w: rer un|Dieu, * * un|Dieu, * * un|Dieu qui vient vous|con- so-|ler, un|Dieu, * * un|
 (G2 F2 E2) F2 | F2 F2 A2 G2 | F4 (D2 E2) | C6 || z2 | z2 C2 D2 B,2 | C6 E2 | F2 F2 F2 B2 | %29
w: Dieu, * * un|Dieu qui vient vous|con- so *|ler.||Vous les ver-|rez cou-|ché dans une é-|
 G4 G2 z2 | z2 F2 D2 E2 | (F2 G2 F2) E2 | F2 F2 F2 B2 | G6 A2 | G6 F2 | (E2 F2 G2) A2 | %36
w: ta- ble|comme un en-|fant, * * nu,|pau- vre, lan- guis-|sant, re-|con *|sez * * son|
 B2 A2 G2 B2 | (A2 G2) F2 E2 | F2 B2 c2 B2 | G6 c2 | (E2 F2 B2) A2 | (G2 F2 E2) c2 | c2 B2 F4 | %43
w: a- mour in- ef-|fa * ble pour|nous ve- nir cher-|cher: Il|est, * * il|est, * * il|est le fi-|
 F4 (F2 E2) | F6 c2 | (E2 F2 B2) A2 | (G2 F2 E2) c2 | c2 B2 F4 | (F2 C2) (F2 E2) | C6 || z2 | %51
w: dèle Ber *|ger! Il|est, * * il|est, * * il|est le fi-|dèle * Ber *|ger!||
 z2!f! F2 F2 _E2 | (_E2 C2 D2) A,2 | B,2 F2 F2 F2 | (F2 E2) F2 z2 | z2 F2 D2 E2 | (E2 A,2 D2) F2 | %57
w: Rois d'O- ri-|ent! * * L'é-|toi- le vous é-|clai * re;|à ce grand|Roi * * ren-|
 F2 F2 F2 F2 | (F2 E2 F2) z2 | z2!p! C2 D2 C2 | C6 C2 | D2 D2 D2 ^C2 | (D2 E2) F2 F2 | %63
w: dez hom- mage et|foi! * *|L'a- stre bril-|lant vous|mène à la lu-|miè * re de|
 F2 E2 D2 F2 | (F2 E2 F2) z2 | z2!f! G2 A2 z2 | z2 E2 F2 A2 | F2 F2 A2 G2 | F4 E4 | F6 z2 | %70
w: ce So- leil nais-|sant; * *|Of- frez,|of- frez, of-|frez l'or, la myrrhe|et l'en-|cens,|
 z2!ff! G2 A2 z2 | z2 G2 A2 B2 | B2 B2 A2 G2 | F4 E4 | C6 |] %75
w: Of- frez,|of- frez, of-|frez l'or, la myrrhe|et l'en-|cens.|
V:3
 z2 | z2!p!!p! C2 D2 B,2 | (B,2 G,2 A,2) G,2 | F,2 C2 C2 F,2 | G,4 A,2 z2 | z2 C2 D2 B,2 | %6
w: ||||||
 (A,2 B,2 C2) E2 | F2 E2 C2 B,2 | (G,2 B,2 A,2) z2 | z2 G,2 D,2 E,2 | (G,2 E,2 F,2)"^cresc." C2 | %11
w: |||||
 B,2 A,2 B,2 B,2 | A,4 A,2 D2 | D2 ^C2 D2 B,2 | (F2 D2 E2)!f! F2 | (G2 F2 E2) C2 | C6 C2 | %17
w: ||||||
 C2 B,2!>(! D2 D2 | C4 C4 | C6!>)!!f! F2 |"^This edition  Andrew Sims 2015" (G2 F2 E2) C2 | C6 C2 | %22
w: |||||
 C2 B,2 D2!>(! D2 | (C2 A,2) B,4 | A,6!>)! ||!p! z2 | z2!pp! A,2 B,2 B,2 | (B,2 G,2 A,2) C2 | %28
w: ||||||
 C2 C2 C2 F2 | (F2 D2) E2 z2 | z2 F2 G2 B,2 | C6 C2 | C2 C2 C2 F2 | (F2 D2 E2) F2 | C4 (D2 =B,2) | %35
w: ||||||* nais *|
 (C2 D2 E2) F2 | G,2 A,2 B,2 G,2 | (A,2 B,2) C2 C2 | C2 G2 F2 D2 | (C2 D2 E2)!f! F2 | C6 F2 | %41
w: ||||||
 C6 F2 | E2 D2"^dim." (C2 B,2) | A,4 G,4 | A,4 z2!pp! F2 | C6 F2 | C6 F2 | E2 D2 (C2 B,2) | %48
w: |||||||
 A,4 G,4 | F,6 || z2 | z2!f! C2 D2 C2 | (C2 A,2 B,2) F,2 | F,2 D2 C2 B,2 | G,4 A,2 z2 | %55
w: |||||||
 z2 C2 D2 A,2 | A,6 A,2 | B,2 D2 C2 F,2 | (G,4 A,2) z2 | z2!p! G,2 D,2 E,2 | (G,2 E,2 F,2) C2 | %61
w: ||||||
 B,2 A,2 B,2 B,2 | A,4 A,2"^cresc." D2 | D2 ^C2 D2 B,2 | G,4 A,2 z2 | z2!f! E2 F2 z2 | %66
w: |||||
 z2 G2 C2 C2 | C2 B,2 D2 D2 | C4 C4 | C6 z2 | z2!ff! E2 F2 z2 | z2 E2 F4- | F2 F2 F2 D2 | %73
w: |||||of- frez||
 (C2 A,2) B,4 | A,6 |] %75
w: ||
V:4
 z2 | z2 A,,2 B,,2 C,2 | F,6 E,2 | D,2 C,2 F,2 D,2 | C,4 F,2 z2 | z2 A,,2 B,,2 C,2 | %6
w: ||||||
 (D,2 B,,2 A,,2) G,,2 | F,,2 C,2 F,2 D,2 | (C,4 F,2) z2 | z2 C,2 B,,2 B,,2 | A,,6 A,2 | %11
w: |||||
 G,2 F,2 E,2 G,2 | (F,2 E,2) D,2 B,,2 | D,2 E,2 F,2 D,2 | C,6 A,2 | (B,2 A,2 G,2) F,2 | %16
w: |||||
 (E,2 D,2 C,2) A,,2 | B,,2 B,,2 B,,2 B,,2 | (C,2 F,2) (C2 B,2) | (A,2 G,2 F,2) A,2 | %20
w: ||||
 (B,2 A,2 G,2) F,2 | (E,2 D,2 C,2) A,,2 | B,,2 B,,2 B,,2 B,,2 | C,4 C,4 | [F,,C,]6 || C2 | %26
w: |||||Vous|
 A,4 G,4 | F,6 C,2 | F,2 G,2 A,2 B,2 | C4 C2 C2 | A,4 G,4 | F,6 C,2 | F,2 G,2 A,2 B,2 | C6 F,2 | %34
w: les ver-|rez *||* * comme|un en-|fant *|||
 E,4 G,4 | C,6 F,2 | E,2 F,2 G,2 E,2 | (F,2 G,2) A,2 G,2 | A,2 G,2 A,2 B,2 | C6 A,2 | %40
w: |sez *|||||
 (B,2 A,2 G,2) F,2 | (E,2 D,2 C,2) A,,2 | B,,2 B,,2 B,,4 | C,4 C,4 | (F,2 C,2 F,2) A,2 | %45
w: |||||
 (B,2 A,2 G,2) F,2 | (E,2 D,2 C,2) A,,2 | B,,2 B,,2 B,,4 | C,4 C,4 | [F,,C,]6 || z2 | %51
w: ||||||
 z2 A,,2 B,,2 C,2 | (A,,2 F,,2 B,,2) _E,2 | D,2 B,,2 F,2 D,2 | C,4 F,2 z2 | z2 A,,2 =B,,2 ^C,2 | %56
w: |||||
 D,6 _E,2 | D,2 B,,2 F,2 D,2 | (C,4 F,2) z2 | z2 C,2 B,,2 B,,2 | A,,6 A,2 | G,2 F,2 E,2 G,2 | %62
w: ||||||
 (F,2 E,2) D,2 B,,2 | D,2 E,2 F,2 D,2 | C,4 F,2 z2 | z2 C,2 F,2 z2 | z2 C,2 A,,2 F,,2 | %67
w: |||||
 B,,2 B,,2 B,,2 B,,2 | (C,2 F,2) (C2 B,2) | (A,2 G,2 F,2) z2 | z2 C,2 F,2 z2 | z2 C,2 _E,2 D,2 | %72
w: ||||of- frez, of-|
 G,2 G,2 A,2 B,2 | C4 C,4 | F,6 |] %75
w: frez * * *|||

